svg/fluentui-system-icons/ic_fluent_skip_forward_30_48_filled.svg

<svg width="48" height="48" viewBox="0 0 48 48" fill="none" xmlns="http://www.w3.org/2000/svg">
<path d="M44.0005 5.49999C44.0005 4.67157 43.3289 4 42.5005 4C41.6721 4 41.0005 4.67157 41.0005 5.49999V12.5265C36.7746 7.58164 30.7083 4.89993 23.978 5.00027C15.5778 5.12551 7.7091 9.41124 3.90634 17.084C3.53846 17.8262 3.84196 18.7262 4.58423 19.0941C5.32649 19.4619 6.22644 19.1584 6.59432 18.4162C9.83204 11.8835 16.5899 8.11074 24.0227 7.99992C30.5324 7.90287 36.2517 10.7684 39.8968 16.0001H31.5005C30.6721 16.0001 30.0005 16.6717 30.0005 17.5001C30.0005 18.3286 30.6721 19.0001 31.5005 19.0001H42.5005C43.3289 19.0001 44.0005 18.3286 44.0005 17.5001V5.49999ZM10.4859 26.7298C11.0929 27.2874 12.0353 27.2502 12.5967 26.6489L12.5978 26.6478C12.6023 26.6432 12.6138 26.6315 12.6322 26.6139C12.6689 26.5784 12.7327 26.5193 12.8227 26.4441C13.0034 26.2931 13.2855 26.0808 13.663 25.8655C14.4152 25.4365 15.5363 25.0001 17.0005 25.0001C18.6853 25.0001 19.7508 25.4566 20.3614 25.9733C20.9639 26.4831 21.2076 27.1139 21.1923 27.7116C21.164 28.8162 20.0967 30.5001 17.0005 30.5001C16.1721 30.5001 15.5005 31.1716 15.5005 32C15.5005 32.8285 16.1721 33.5 17.0005 33.5C18.7201 33.5 19.8063 33.9595 20.4268 34.4786C21.0374 34.9895 21.2785 35.6169 21.2616 36.2071C21.2303 37.3015 20.1462 39 17.0005 39C15.5363 39 14.4152 38.5636 13.663 38.1345C13.2855 37.9193 13.0034 37.707 12.8227 37.556C12.7327 37.4808 12.6689 37.4217 12.6322 37.3862C12.6138 37.3686 12.6023 37.3569 12.5978 37.3523L12.5967 37.3512C12.0353 36.7499 11.0929 36.7127 10.4859 37.2702C9.87572 37.8306 9.83536 38.7795 10.3957 39.3896C9.83868 38.7831 10.3966 39.3906 10.3966 39.3906L10.3976 39.3917L10.3997 39.3939L10.4044 39.399L10.4162 39.4116C10.425 39.4209 10.4359 39.4323 10.4488 39.4455C10.4746 39.472 10.5085 39.506 10.5504 39.5464C10.6343 39.6272 10.7507 39.7341 10.899 39.8581C11.1952 40.1056 11.6227 40.4245 12.1767 40.7405C13.2874 41.3739 14.9163 42 17.0005 42C21.2923 42 24.1701 39.4485 24.2604 36.2929C24.3043 34.7582 23.6461 33.2606 22.3518 32.1777C22.2497 32.0923 22.1443 32.0099 22.0355 31.9306C23.3701 30.8885 24.1496 29.4161 24.1913 27.7885C24.2305 26.2612 23.5802 24.767 22.2992 23.6831C21.0263 22.6061 19.219 22.0001 17.0005 22.0001C14.9163 22.0001 13.2874 22.6261 12.1767 23.2596C11.6227 23.5756 11.1952 23.8945 10.899 24.142C10.7507 24.266 10.6343 24.3729 10.5504 24.4537C10.5085 24.4941 10.4746 24.5281 10.4488 24.5546C10.4426 24.561 10.4368 24.5669 10.4315 24.5724C10.4259 24.5783 10.4207 24.5837 10.4162 24.5885L10.4044 24.6011L10.3997 24.6061L10.3966 24.6095L10.3957 24.6105L10.3944 24.6118C9.83542 25.222 9.87618 26.1699 10.4859 26.7298ZM34.3149 22.0001C31.6146 22.0001 29.6894 23.244 28.5275 25.2331C27.4328 27.1073 27.0649 29.5457 27.0649 32C27.0649 34.4544 27.4328 36.8928 28.5275 38.767C29.6894 40.7561 31.6146 42 34.3149 42C37.0152 42 38.9405 40.7561 40.1024 38.767C41.1971 36.8928 41.5649 34.4544 41.5649 32C41.5649 29.5457 41.1971 27.1073 40.1024 25.2331C38.9405 23.244 37.0152 22.0001 34.3149 22.0001ZM30.0649 32C30.0649 29.76 30.4158 27.9484 31.118 26.7462C31.753 25.659 32.7027 25.0001 34.3149 25.0001C35.9271 25.0001 36.8769 25.659 37.5119 26.7462C38.2141 27.9484 38.5649 29.76 38.5649 32C38.5649 34.2401 38.2141 36.0517 37.5119 37.2539C36.8769 38.3411 35.9271 39 34.3149 39C32.7027 39 31.753 38.3411 31.118 37.2539C30.4158 36.0517 30.0649 34.2401 30.0649 32Z" fill="#212121"/>
</svg>

<svg xmlns="http://www.w3.org/2000/svg" width="48" height="48"><path d="M44 5.5a1.5 1.5 0 0 0-3 0v7.027C36.776 7.582 30.709 4.9 23.979 5c-8.4.126-16.269 4.411-20.072 12.084a1.5 1.5 0 0 0 2.688 1.332C9.832 11.883 16.59 8.111 24.023 8c6.51-.097 12.229 2.768 15.874 8H31.5a1.5 1.5 0 0 0 0 3h11a1.5 1.5 0 0 0 1.5-1.5v-12ZM10.486 26.73a1.5 1.5 0 0 0 2.11-.081l.002-.001.034-.034c.037-.036.1-.095.19-.17.181-.15.464-.363.841-.578A6.68 6.68 0 0 1 17 25c1.685 0 2.75.457 3.361.973.603.51.847 1.14.831 1.739C21.164 28.816 20.097 30.5 17 30.5a1.5 1.5 0 1 0 0 3c1.72 0 2.806.46 3.427.979.61.51.852 1.138.835 1.728C21.23 37.301 20.146 39 17 39a6.678 6.678 0 0 1-3.337-.865 5.794 5.794 0 0 1-.84-.579 3.584 3.584 0 0 1-.225-.204h-.001a1.5 1.5 0 0 0-2.201 2.038c-.557-.607 0 0 0 0l.002.002.002.002.004.005.012.013a2.903 2.903 0 0 0 .134.134c.084.081.2.188.349.312.296.248.724.567 1.278.883A9.68 9.68 0 0 0 17 42c4.292 0 7.17-2.551 7.26-5.707.044-1.535-.614-3.032-1.908-4.115a6.014 6.014 0 0 0-.317-.247c1.335-1.043 2.115-2.515 2.156-4.143.04-1.527-.61-3.021-1.892-4.105C21.026 22.606 19.22 22 17 22a9.678 9.678 0 0 0-4.823 1.26 8.803 8.803 0 0 0-1.278.882 6.697 6.697 0 0 0-.45.413l-.018.017-.015.017-.012.012-.004.005-.003.003-.001.001-.002.002a1.5 1.5 0 0 0 .092 2.118ZM34.315 22c-2.7 0-4.626 1.244-5.787 3.233-1.095 1.874-1.463 4.313-1.463 6.767 0 2.454.368 4.893 1.462 6.767C29.69 40.757 31.616 42 34.316 42s4.626-1.244 5.787-3.233c1.095-1.874 1.463-4.313 1.463-6.767 0-2.454-.368-4.893-1.463-6.767C38.941 23.244 37.015 22 34.315 22Zm-4.25 10c0-2.24.35-4.052 1.053-5.254C31.753 25.66 32.703 25 34.315 25s2.562.659 3.197 1.746c.702 1.202 1.053 3.014 1.053 5.254 0 2.24-.35 4.052-1.053 5.254C36.877 38.34 35.927 39 34.315 39s-2.562-.659-3.197-1.746c-.702-1.202-1.053-3.014-1.053-5.254Z"/></svg>
